X: 46
T:Robinson's Reel
M:4/4
L:1/8
Q:200
S:Lakes
R:Reel
Z:C.G.P
K:A
Aaae cAAc|Bbba ge"* E in MS"fg|agae fedc|dfed cAA2:|!
|:cAGA FAEA|GABc dfed|cAGA FAEA|dfed cAA2:|]
